svg/u1f524.svg

<svg viewBox="0 0 128 128" xmlns="http://www.w3.org/2000/svg">
  <g>
    <path d="M116,4H12c-4.4,0-8,3.6-8,8v104c0,4.4,3.6,8,8,8h104c4.4,0,8-3.6,8-8V12C124,7.6,120.4,4,116,4z" fill="#427687"/>
    <path d="M109.7,4H11.5C7.4,4,4,7.4,4,11.5v97.9c0,4.2,3.4,7.5,7.5,7.5h98.1c4.2,0,7.5-3.4,7.5-7.5V11.5 C117.3,7.4,113.8,4,109.7,4z" fill="#8CAFBF"/>
  </g>
  <path d="M39.7,12.9c0-2.3-1.6-3-10.8-2.7c-7.7,0.3-11.5,1.2-13.8,4 s-2.9,8.5-3,15.3c0,4.8,0,9.3,2.5,9.3c3.4,0,3.4-7.9,6.2-12.3C26.2,17.8,39.7,15.9,39.7,12.9z" opacity="0.5" fill="#B4E1ED" enable-background="new "/>
  <g>
    <path d="M14.92,77.96c-2.02-1.85-3.04-4.27-3.04-7.27c0-1.99,0.53-3.74,1.58-5.26 c1.05-1.52,2.49-2.69,4.32-3.5c1.83-0.82,3.85-1.23,6.07-1.23c3.08,0,5.7,0.45,7.88,1.34v-1.28c0-1.63-0.61-2.96-1.84-3.97 c-1.23-1.01-2.87-1.52-4.93-1.52c-1.4,0-2.75,0.32-4.06,0.96c-1.31,0.64-2.39,1.49-3.24,2.54l-4.91-3.85 c1.44-1.87,3.25-3.31,5.43-4.32c2.18-1.01,4.56-1.52,7.12-1.52c4.56,0,8.02,1.05,10.4,3.15c2.37,2.1,3.56,5.18,3.56,9.23V79.8 h-7.53v-3.04h-0.47c-0.9,1.17-2.07,2.12-3.53,2.86c-1.46,0.74-3.14,1.11-5.05,1.11C19.53,80.74,16.95,79.81,14.92,77.96z M29.78,72.65c1.3-1.42,1.96-3.08,1.96-4.99c-1.99-0.93-4.07-1.4-6.25-1.4c-3.97,0-5.96,1.48-5.96,4.44c0,1.21,0.43,2.19,1.28,2.95 c0.86,0.76,2.08,1.14,3.68,1.14C26.72,74.78,28.48,74.07,29.78,72.65z" fill="#FAFAFA"/>
    <path d="M57.52,79.45c-1.58-0.86-2.75-1.93-3.53-3.21h-0.47v3.56h-7.18V37.99h7.65v11.45l-0.47,4.2h0.47 c0.82-1.28,2-2.36,3.56-3.24c1.56-0.88,3.35-1.31,5.37-1.31c2.69,0,5.13,0.67,7.33,2.01s3.92,3.22,5.17,5.64 c1.25,2.41,1.87,5.14,1.87,8.18c0,3.08-0.62,5.81-1.87,8.21s-2.97,4.26-5.17,5.61c-2.2,1.34-4.64,2.01-7.33,2.01 C60.9,80.74,59.1,80.31,57.52,79.45z M65.61,72.56c1.25-0.74,2.24-1.77,2.98-3.09c0.74-1.32,1.11-2.84,1.11-4.56 c0-1.71-0.37-3.23-1.11-4.55c-0.74-1.32-1.73-2.34-2.98-3.07c-1.25-0.72-2.59-1.08-4.03-1.08c-1.4,0-2.73,0.36-3.97,1.08 c-1.25,0.72-2.24,1.74-2.98,3.07c-0.74,1.32-1.11,2.84-1.11,4.55c0,1.71,0.37,3.23,1.11,4.56c0.74,1.32,1.73,2.36,2.98,3.09 c1.25,0.74,2.57,1.11,3.97,1.11C63.02,73.67,64.36,73.3,65.61,72.56z" fill="#FAFAFA"/>
    <path d="M89.14,78.72c-2.38-1.34-4.23-3.22-5.58-5.64c-1.34-2.41-2.01-5.14-2.01-8.18 c0-3.04,0.67-5.75,2.01-8.15c1.34-2.39,3.2-4.27,5.58-5.64c2.37-1.36,5.06-2.04,8.06-2.04c3.31,0,6.15,0.71,8.53,2.13 c2.38,1.42,4.09,3.44,5.14,6.04l-7.01,2.92c-1.25-2.65-3.47-3.97-6.66-3.97c-2.34,0-4.25,0.8-5.75,2.39 c-1.5,1.6-2.25,3.7-2.25,6.31c0,2.65,0.75,4.77,2.25,6.37c1.5,1.6,3.42,2.39,5.75,2.39c3.23,0,5.57-1.4,7.01-4.2l6.95,3.04 c-1.29,2.61-3.12,4.63-5.49,6.07c-2.38,1.44-5.2,2.16-8.47,2.16C94.2,80.74,91.52,80.07,89.14,78.72z" fill="#FAFAFA"/>
  </g>
</svg>

<svg viewBox="0 0 128 128" xmlns="http://www.w3.org/2000/svg">
  <defs/>
  <path d="M116,4 L12,4 C7.6,4 4,7.6 4,12 L4,116 C4,120.4 7.6,124 12,124 L116,124 C120.4,124 124,120.4 124,116 L124,12 C124,7.6 120.4,4 116,4 Z" fill="#427687"/>
  <path d="M109.7,4 L11.5,4 C7.4,4 4,7.4 4,11.5 L4,109.4 C4,113.6 7.4,116.9 11.5,116.9 L109.6,116.9 C113.8,116.9 117.1,113.5 117.1,109.4 L117.1,11.5 C117.3,7.4 113.8,4 109.7,4 Z" fill="#8CAFBF"/>
  <path d="M39.7,12.9 C39.7,10.6 38.1,9.9 28.9,10.2 C21.2,10.5 17.4,11.4 15.1,14.2 C12.8,17 12.2,22.7 12.1,29.5 C12.1,34.3 12.1,38.8 14.6,38.8 C18,38.8 18,30.9 20.8,26.5 C26.2,17.8 39.7,15.9 39.7,12.9 Z" fill="#B4E1ED" opacity="0.5"/>
  <path d="M14.92,77.96 C12.9,76.11 11.88,73.69 11.88,70.69 C11.88,68.7 12.41,66.95 13.46,65.43 C14.51,63.91 15.95,62.74 17.78,61.93 C19.61,61.11 21.63,60.7 23.85,60.7 C26.93,60.7 29.55,61.15 31.73,62.04 L31.73,60.76 C31.73,59.13 31.12,57.8 29.89,56.79 C28.66,55.78 27.02,55.27 24.96,55.27 C23.56,55.27 22.21,55.59 20.9,56.23 C19.59,56.87 18.51,57.72 17.66,58.77 L12.75,54.92 C14.19,53.05 16,51.61 18.18,50.6 C20.36,49.59 22.74,49.08 25.3,49.08 C29.86,49.08 33.32,50.13 35.7,52.23 C38.07,54.33 39.26,57.41 39.26,61.46 L39.26,79.8 L31.73,79.8 L31.73,76.76 L31.26,76.76 C30.36,77.93 29.19,78.88 27.73,79.62 C26.27,80.36 24.59,80.73 22.68,80.73 C19.53,80.74 16.95,79.81 14.92,77.96 Z M29.78,72.65 C31.08,71.23 31.74,69.57 31.74,67.66 C29.75,66.73 27.67,66.26 25.49,66.26 C21.52,66.26 19.53,67.74 19.53,70.7 C19.53,71.91 19.96,72.89 20.81,73.65 C21.67,74.41 22.89,74.79 24.49,74.79 C26.72,74.78 28.48,74.07 29.78,72.65 Z" fill="#FAFAFA"/>
  <path d="M57.52,79.45 C55.94,78.59 54.77,77.52 53.99,76.24 L53.52,76.24 L53.52,79.8 L46.34,79.8 L46.34,37.99 L53.99,37.99 L53.99,49.44 L53.52,53.64 L53.99,53.64 C54.81,52.36 55.99,51.28 57.55,50.4 C59.11,49.52 60.9,49.09 62.92,49.09 C65.61,49.09 68.05,49.76 70.25,51.1 C72.45,52.44 74.17,54.32 75.42,56.74 C76.67,59.15 77.29,61.88 77.29,64.92 C77.29,68 76.67,70.73 75.42,73.13 C74.17,75.53 72.45,77.39 70.25,78.74 C68.05,80.08 65.61,80.75 62.92,80.75 C60.9,80.74 59.1,80.31 57.52,79.45 Z M65.61,72.56 C66.86,71.82 67.85,70.79 68.59,69.47 C69.33,68.15 69.7,66.63 69.7,64.91 C69.7,63.2 69.33,61.68 68.59,60.36 C67.85,59.04 66.86,58.02 65.61,57.29 C64.36,56.57 63.02,56.21 61.58,56.21 C60.18,56.21 58.85,56.57 57.61,57.29 C56.36,58.01 55.37,59.03 54.63,60.36 C53.89,61.68 53.52,63.2 53.52,64.91 C53.52,66.62 53.89,68.14 54.63,69.47 C55.37,70.79 56.36,71.83 57.61,72.56 C58.86,73.3 60.18,73.67 61.58,73.67 C63.02,73.67 64.36,73.3 65.61,72.56 Z" fill="#FAFAFA"/>
  <path d="M89.14,78.72 C86.76,77.38 84.91,75.5 83.56,73.08 C82.22,70.67 81.55,67.94 81.55,64.9 C81.55,61.86 82.22,59.15 83.56,56.75 C84.9,54.36 86.76,52.48 89.14,51.11 C91.51,49.75 94.2,49.07 97.2,49.07 C100.51,49.07 103.35,49.78 105.73,51.2 C108.11,52.62 109.82,54.64 110.87,57.24 L103.86,60.16 C102.61,57.51 100.39,56.19 97.2,56.19 C94.86,56.19 92.95,56.99 91.45,58.58 C89.95,60.18 89.2,62.28 89.2,64.89 C89.2,67.54 89.95,69.66 91.45,71.26 C92.95,72.86 94.87,73.65 97.2,73.65 C100.43,73.65 102.77,72.25 104.21,69.45 L111.16,72.49 C109.87,75.1 108.04,77.12 105.67,78.56 C103.29,80 100.47,80.72 97.2,80.72 C94.2,80.74 91.52,80.07 89.14,78.72 Z" fill="#FAFAFA"/>
</svg>
